markets/SUSHI.svg

<svg width="42" height="42" viewBox="0 0 42 42" fill="none" xmlns="http://www.w3.org/2000/svg">
<circle cx="21" cy="21" r="21" fill="white"/>
<g clip-path="url(#clip0_7698_9588)">
<mask id="mask0_7698_9588" style="mask-type:luminance" maskUnits="userSpaceOnUse" x="6" y="6" width="30" height="30">
<path d="M36 6H6V36H36V6Z" fill="white"/>
</mask>
<g mask="url(#mask0_7698_9588)">
<path d="M12.25 8.875L35.5 24.75L29.75 33.25L6.5 17.25L12.25 8.875Z" fill="url(#paint0_linear_7698_9588)"/>
<path d="M35.5 24.75C33.5 27.625 26.75 26.5 20.375 22C13.875 17.625 10.375 11.75 12.25 8.87503C14.25 6.00003 21 7.12503 27.375 11.625C33.875 15.875 37.375 21.875 35.5 24.75Z" fill="url(#paint1_linear_7698_9588)"/>
<path d="M29.75 33.125C27.75 36 21 34.875 14.625 30.375C8.25004 25.875 4.62504 20.125 6.62504 17.125C8.62504 14.25 15.375 15.375 21.75 19.875C28.125 24.375 31.625 30.25 29.75 33.125Z" fill="url(#paint2_linear_7698_9588)"/>
<path d="M35.5 24.75L29.75 33.25C27.75 36.125 21 34.875 14.625 30.5C13.375 29.625 12.25 28.75 11.125 27.75C12 27.625 13.125 27.125 14.25 25.875C16.25 23.75 17.25 23.25 18.125 23.375C19 23.375 20 24.25 21.625 26.375C23.25 28.5 25.5 29.125 26.875 28C27 27.875 27.125 27.875 27.25 27.75C28.375 26.875 28.75 26.5 30.875 22.5C31.375 21.5 33.125 19.875 35.5 20.625C36.125 22.25 36.125 23.625 35.5 24.75Z" fill="#0E0F23"/>
<path fill-rule="evenodd" clip-rule="evenodd" d="M34.6251 24.25C32.8751 26.75 26.7501 25.5 20.8751 21.375C14.8751 17.25 11.3751 12 13.1251 9.50004C14.8751 7.00004 21.0001 8.25004 26.8751 12.375C32.7501 16.5 36.2501 21.75 34.6251 24.25ZM29.1251 20.5C28.2501 21.75 25.2501 21.125 22.2501 19.125C19.3751 17.125 17.6251 14.5 18.5001 13.25C19.3751 12 22.3751 12.625 25.3751 14.625C28.2501 16.625 30.0001 19.25 29.1251 20.5Z" fill="white"/>
<path d="M11.75 11.75C11.75 11.625 11.625 11.5 11.5 11.625C11.375 11.75 11.25 11.75 11.25 11.875C11.375 12.25 11.5 12.5 11.5 12.75C11.5 12.875 11.625 13 11.75 12.875C11.875 12.875 12 12.75 11.875 12.625C11.875 12.375 11.875 12.125 11.75 11.75Z" fill="white"/>
<path d="M12.375 13.75C12.375 13.625 12.25 13.5 12.125 13.625C12 13.75 12 13.75 12 13.875C13.375 17 16.25 20.375 20 22.875C20.125 23 20.25 22.875 20.375 22.875C20.5 22.75 20.375 22.625 20.375 22.5C16.5 20 13.75 16.75 12.375 13.75Z" fill="white"/>
<path d="M27.5 26C27.375 26 27.25 26 27.25 26.125C27.25 26.25 27.25 26.375 27.375 26.375C27.75 26.5 28.25 26.625 28.625 26.75C28.75 26.75 28.875 26.75 28.875 26.625C28.875 26.5 28.875 26.375 28.75 26.375C28.375 26.25 27.875 26.125 27.5 26Z" fill="white"/>
<path d="M29.75 26.5C29.625 26.5 29.5 26.625 29.5 26.75C29.5 26.875 29.625 27 29.75 27C30.75 27.125 31.875 27.25 32.75 27.125C32.875 27.125 33 27 33 26.875C33 26.75 32.875 26.625 32.75 26.625C31.75 26.75 30.75 26.625 29.75 26.5Z" fill="white"/>
</g>
</g>
<defs>
<linearGradient id="paint0_linear_7698_9588" x1="16.8052" y1="6.61788" x2="21.416" y2="22.4506" gradientUnits="userSpaceOnUse">
<stop stop-color="#03B8FF"/>
<stop offset="1" stop-color="#FA52A0"/>
</linearGradient>
<linearGradient id="paint1_linear_7698_9588" x1="20.6023" y1="5.51203" x2="25.2132" y2="21.3449" gradientUnits="userSpaceOnUse">
<stop stop-color="#03B8FF"/>
<stop offset="1" stop-color="#FA52A0"/>
</linearGradient>
<linearGradient id="paint2_linear_7698_9588" x1="13.02" y1="7.72015" x2="17.6309" y2="23.553" gradientUnits="userSpaceOnUse">
<stop stop-color="#03B8FF"/>
<stop offset="1" stop-color="#FA52A0"/>
</linearGradient>
<clipPath id="clip0_7698_9588">
<rect width="30" height="30" fill="white" transform="translate(6 6)"/>
</clipPath>
</defs>
</svg>

<svg width="42" height="42" viewBox="0 0 42 42" fill="none" xmlns="http://www.w3.org/2000/svg"><circle cx="21" cy="21" r="21" fill="#fff"/><g clip-path="url(#clip0_7698_9588)"><mask id="mask0_7698_9588" style="mask-type:luminance" maskUnits="userSpaceOnUse" x="6" y="6" width="30" height="30"><path d="M36 6H6v30h30V6z" fill="#fff"/></mask><g mask="url(#mask0_7698_9588)"><path d="M12.25 8.875L35.5 24.75l-5.75 8.5-23.25-16 5.75-8.375z" fill="url(#paint0_linear_7698_9588)"/><path d="M35.5 24.75c-2 2.875-8.75 1.75-15.125-2.75-6.5-4.375-10-10.25-8.125-13.125 2-2.875 8.75-1.75 15.125 2.75 6.5 4.25 10 10.25 8.125 13.125z" fill="url(#paint1_linear_7698_9588)"/><path d="M29.75 33.125c-2 2.875-8.75 1.75-15.125-2.75s-10-10.25-8-13.25c2-2.875 8.75-1.75 15.125 2.75s9.875 10.375 8 13.25z" fill="url(#paint2_linear_7698_9588)"/><path d="M35.5 24.75l-5.75 8.5c-2 2.875-8.75 1.625-15.125-2.75a37.66 37.66 0 01-3.5-2.75c.875-.125 2-.625 3.125-1.875 2-2.125 3-2.625 3.875-2.5.875 0 1.875.875 3.5 3s3.875 2.75 5.25 1.625c.125-.125.25-.125.375-.25 1.125-.875 1.5-1.25 3.625-5.25.5-1 2.25-2.625 4.625-1.875.625 1.625.625 3 0 4.125z" fill="#0E0F23"/><path fill-rule="evenodd" clip-rule="evenodd" d="M34.625 24.25c-1.75 2.5-7.875 1.25-13.75-2.875-6-4.125-9.5-9.375-7.75-11.875S21 8.25 26.875 12.375s9.375 9.375 7.75 11.875zm-5.5-3.75c-.875 1.25-3.875.625-6.875-1.375-2.875-2-4.625-4.625-3.75-5.875s3.875-.625 6.875 1.375c2.875 2 4.625 4.625 3.75 5.875z" fill="#fff"/><path d="M11.75 11.75c0-.125-.125-.25-.25-.125s-.25.125-.25.25c.125.375.25.625.25.875 0 .125.125.25.25.125.125 0 .25-.125.125-.25 0-.25 0-.5-.125-.875zm.625 2c0-.125-.125-.25-.25-.125s-.125.125-.125.25c1.375 3.125 4.25 6.5 8 9 .125.125.25 0 .375 0 .125-.125 0-.25 0-.375-3.875-2.5-6.625-5.75-8-8.75zM27.5 26c-.125 0-.25 0-.25.125s0 .25.125.25c.375.125.875.25 1.25.375.125 0 .25 0 .25-.125s0-.25-.125-.25c-.375-.125-.875-.25-1.25-.375zm2.25.5a.269.269 0 00-.25.25c0 .125.125.25.25.25 1 .125 2.125.25 3 .125.125 0 .25-.125.25-.25a.269.269 0 00-.25-.25c-1 .125-2 0-3-.125z" fill="#fff"/></g></g><defs><linearGradient id="paint0_linear_7698_9588" x1="16.805" y1="6.618" x2="21.416" y2="22.451" gradientUnits="userSpaceOnUse"><stop stop-color="#03B8FF"/><stop offset="1" stop-color="#FA52A0"/></linearGradient><linearGradient id="paint1_linear_7698_9588" x1="20.602" y1="5.512" x2="25.213" y2="21.345" gradientUnits="userSpaceOnUse"><stop stop-color="#03B8FF"/><stop offset="1" stop-color="#FA52A0"/></linearGradient><linearGradient id="paint2_linear_7698_9588" x1="13.02" y1="7.72" x2="17.631" y2="23.553" gradientUnits="userSpaceOnUse"><stop stop-color="#03B8FF"/><stop offset="1" stop-color="#FA52A0"/></linearGradient><clipPath id="clip0_7698_9588"><path fill="#fff" transform="translate(6 6)" d="M0 0h30v30H0z"/></clipPath></defs></svg>
